front/src/Assets/image/payment/ApplePay.svg

<svg width="51" height="22" viewBox="0 0 51 22" fill="none" xmlns="http://www.w3.org/2000/svg">
<path fill-rule="evenodd" clip-rule="evenodd" d="M9.45426 3.03403C8.86671 3.75249 7.92662 4.31916 6.98654 4.2382C6.86903 3.26677 7.32928 2.23462 7.86787 1.59711C8.45542 0.858419 9.48363 0.332225 10.316 0.291748C10.4139 1.30366 10.032 2.29533 9.45426 3.03403ZM10.3061 4.43046C9.47794 4.38121 8.72225 4.68784 8.11185 4.93551C7.71905 5.0949 7.38642 5.22987 7.13336 5.22987C6.84937 5.22987 6.50301 5.08768 6.11412 4.92804C5.60455 4.71885 5.02197 4.4797 4.41104 4.49118C3.0107 4.51141 1.7083 5.33106 0.993446 6.63643C-0.475432 9.24716 0.611538 13.1127 2.03145 15.2377C2.72672 16.2901 3.55909 17.4436 4.65585 17.4032C5.13836 17.3843 5.48545 17.2321 5.84465 17.0746C6.25819 16.8933 6.68779 16.7049 7.35858 16.7049C8.00612 16.7049 8.41693 16.8884 8.81129 17.0645C9.18625 17.232 9.54634 17.3928 10.0809 17.3829C11.2168 17.3627 11.9317 16.3305 12.627 15.2781C13.3773 14.1486 13.707 13.0463 13.757 12.879L13.7629 12.8597C13.7617 12.8584 13.7524 12.8541 13.7361 12.8463L13.7361 12.8463C13.4852 12.7277 11.5682 11.8208 11.5498 9.38882C11.5313 7.34758 13.0704 6.31335 13.3126 6.15054C13.3274 6.14064 13.3373 6.13395 13.3418 6.13047C12.3626 4.63284 10.8349 4.47094 10.3061 4.43046ZM18.1696 17.2716V1.49592H23.8982C26.8556 1.49592 28.9218 3.60069 28.9218 6.6769C28.9218 9.75311 26.8164 11.8781 23.8199 11.8781H20.5394V17.2716H18.1696ZM20.5392 3.56021H23.2713C25.3277 3.56021 26.5028 4.69355 26.5028 6.68702C26.5028 8.68048 25.3277 9.82394 23.2615 9.82394H20.5392V3.56021ZM36.7461 15.3793C36.1194 16.6139 34.7387 17.393 33.2502 17.393C31.0469 17.393 29.5095 16.0371 29.5095 13.993C29.5095 11.9692 30.9979 10.8055 33.7496 10.6335L36.707 10.4513V9.58109C36.707 8.29597 35.8942 7.59775 34.4449 7.59775C33.2502 7.59775 32.3787 8.23525 32.2024 9.20669H30.0676C30.1362 7.16263 31.9968 5.67512 34.5134 5.67512C37.226 5.67512 38.9886 7.14239 38.9886 9.41919V17.2716H36.7951V15.3793H36.7461ZM33.8865 15.521C32.6233 15.521 31.8203 14.8936 31.8203 13.9323C31.8203 12.9406 32.5939 12.3639 34.0726 12.2728L36.7068 12.1008V12.9912C36.7068 14.4686 35.4925 15.521 33.8865 15.521ZM46.2644 17.8889C45.3145 20.6514 44.2275 21.5621 41.9165 21.5621C41.7402 21.5621 41.1527 21.5419 41.0156 21.5014V19.6091C41.1625 19.6294 41.5248 19.6496 41.7108 19.6496C42.7586 19.6496 43.3462 19.1943 43.7085 18.0103L43.924 17.3121L39.909 5.82691H42.3865L45.1774 15.1466H45.2264L48.0172 5.82691H50.4262L46.2644 17.8889Z" fill="black"/>
</svg>

<svg xmlns="http://www.w3.org/2000/svg" fill="none" viewBox="0 0 51 22">
  <path fill="#000" fill-rule="evenodd" d="M9.454 3.034c-.587.718-1.527 1.285-2.467 1.204-.118-.971.342-2.003.88-2.64C8.456.857 9.485.331 10.317.291c.098 1.012-.284 2.003-.862 2.742zm.852 1.396c-.828-.049-1.584.258-2.194.506-.393.159-.726.294-.979.294-.284 0-.63-.142-1.019-.302-.51-.21-1.092-.448-1.703-.437-1.4.02-2.703.84-3.418 2.145-1.468 2.611-.381 6.477 1.038 8.602.696 1.052 1.528 2.206 2.625 2.165.482-.019.83-.17 1.189-.328.413-.182.843-.37 1.514-.37.647 0 1.058.183 1.452.36.375.167.735.328 1.27.318 1.136-.02 1.85-1.052 2.546-2.105a9.393 9.393 0 001.13-2.399l.006-.02-.027-.013c-.25-.118-2.168-1.025-2.186-3.457-.019-2.041 1.52-3.076 1.763-3.238a.72.72 0 00.029-.02c-.98-1.498-2.507-1.66-3.036-1.7zm7.864 12.842V1.496h5.728c2.958 0 5.024 2.105 5.024 5.18 0 3.077-2.106 5.202-5.102 5.202h-3.28v5.394h-2.37zM20.54 3.56h2.731c2.057 0 3.232 1.134 3.232 3.127 0 1.993-1.175 3.137-3.241 3.137h-2.723V3.56zm16.206 11.82c-.627 1.234-2.007 2.013-3.496 2.013-2.203 0-3.74-1.356-3.74-3.4 0-2.024 1.488-3.188 4.24-3.36l2.957-.182v-.87c0-1.285-.813-1.983-2.262-1.983-1.195 0-2.066.637-2.243 1.609h-2.134c.068-2.044 1.929-3.532 4.445-3.532 2.713 0 4.476 1.467 4.476 3.744v7.853h-2.194v-1.893h-.049zm-2.86.141c-1.263 0-2.066-.627-2.066-1.589 0-.991.774-1.568 2.253-1.66l2.634-.171v.89c0 1.478-1.215 2.53-2.82 2.53zm12.378 2.368c-.95 2.762-2.037 3.673-4.348 3.673-.176 0-.763-.02-.9-.06v-1.893c.147.02.509.04.695.04 1.048 0 1.635-.455 1.998-1.639l.215-.698-4.015-11.485h2.477l2.791 9.32h.05l2.79-9.32h2.41l-4.163 12.062z" clip-rule="evenodd"/>
</svg>
